world_stage/static/flags/rect/abw.svg

<svg height="800" viewBox="0 0 1200 800" width="1200" xmlns="http://www.w3.org/2000/svg"><path d="m0 0h900v600h-900z" fill="#4189dd" transform="matrix(1.3333333 0 0 -1.3333333 0 800)"/><path d="m0 166.667h900v33.332h-900zm0 0v-33.334zm0-66.667h900v33.333h-900z" fill="#f9d616" transform="matrix(1.3333333 0 0 -1.3333333 0 800)"/><path d="m0 0 23.57-76.43 76.43-23.57-76.43-23.57-23.57-76.43-23.57 76.43-76.43 23.57 76.43 23.57z" fill="#fff" transform="matrix(1.3333333 0 0 -1.3333333 177.778 44.444667)"/><path d="m0 0 18.158-58.879 58.88-18.159-58.88-18.157-18.158-58.88-18.158 58.88-58.88 18.157 58.88 18.159z" fill="#d21034" transform="matrix(1.3333333 0 0 -1.3333333 177.778 75.0612)"/></svg>

<?xml version="1.0" encoding="UTF-8" standalone="no"?>
<!-- Created with Inkscape (http://www.inkscape.org/) -->

<svg
   version="1.1"
   id="svg1"
   width="1200"
   height="800"
   viewBox="0 0 1200 800"
   sodipodi:docname="aw.ai"
   xmlns:inkscape="http://www.inkscape.org/namespaces/inkscape"
   xmlns:sodipodi="http://sodipodi.sourceforge.net/DTD/sodipodi-0.dtd"
   xmlns="http://www.w3.org/2000/svg"
   xmlns:svg="http://www.w3.org/2000/svg">
  <defs
     id="defs1" />
  <sodipodi:namedview
     id="namedview1"
     pagecolor="#ffffff"
     bordercolor="#000000"
     borderopacity="0.25"
     inkscape:showpageshadow="2"
     inkscape:pageopacity="0.0"
     inkscape:pagecheckerboard="0"
     inkscape:deskcolor="#d1d1d1">
    <inkscape:page
       x="0"
       y="0"
       inkscape:label="1"
       id="page1"
       width="1200"
       height="800"
       margin="2.035e-05 0 0 4.069e-05"
       bleed="0" />
  </sodipodi:namedview>
  <g
     id="layer-MC0"
     inkscape:groupmode="layer"
     inkscape:label="Layer 1">
    <path
       id="path1"
       d="M 0,0 H 900 V 600 H 0 Z"
       style="fill:#4189dd;fill-opacity:1;fill-rule:nonzero;stroke:none"
       transform="matrix(1.3333333,0,0,-1.3333333,0,800)" />
    <path
       id="path2"
       d="m 0,166.667 h 900 v 33.332 H 0 Z m 0,0 V 133.333 Z M 0,100 h 900 v 33.333 H 0 Z"
       style="fill:#f9d616;fill-opacity:1;fill-rule:nonzero;stroke:none"
       transform="matrix(1.3333333,0,0,-1.3333333,0,800)" />
    <path
       id="path3"
       d="M 0,0 23.57,-76.43 100,-100 23.57,-123.57 0,-200 -23.57,-123.57 -100,-100 l 76.43,23.57 z"
       style="fill:#ffffff;fill-opacity:1;fill-rule:nonzero;stroke:none"
       transform="matrix(1.3333333,0,0,-1.3333333,177.778,44.444667)" />
    <path
       id="path4"
       d="M 0,0 18.158,-58.879 77.038,-77.038 18.158,-95.195 0,-154.075 l -18.158,58.88 -58.88,18.157 58.88,18.159 z"
       style="fill:#d21034;fill-opacity:1;fill-rule:nonzero;stroke:none"
       transform="matrix(1.3333333,0,0,-1.3333333,177.778,75.0612)" />
  </g>
</svg>
